X: 21293
T: Kelp Store, The
R: reel
M: 4/4
K: Dmajor
defd A3A|BAGA B3B|cdec ABcA|defg agfe|
defd A3A|BAGA B3B|cdec ABcA|d2f2 d4:|
a2ag f2fe|defd A3A|gagf efed|cdec A4|
a2ag f2fe|defd A3A|cdec ABcA|d2f2 d4|
a2ag f2fe|defd A3A|gagf efed|cdec A4|
defd A3A|BAGA B3B|cdec ABcA|d2f2 d4||

